Numix-Light/16/status/indicator-keyboard-Xs.svg

<?xml version="1.0" encoding="UTF-8" standalone="no"?>
<svg
   xmlns:dc="http://purl.org/dc/elements/1.1/"
   xmlns:cc="http://creativecommons.org/ns#"
   xmlns:rdf="http://www.w3.org/1999/02/22-rdf-syntax-ns#"
   xmlns:svg="http://www.w3.org/2000/svg"
   xmlns="http://www.w3.org/2000/svg"
   xmlns:sodipodi="http://sodipodi.sourceforge.net/DTD/sodipodi-0.dtd"
   xmlns:inkscape="http://www.inkscape.org/namespaces/inkscape"
   viewBox="0 0 16 16"
   id="svg2"
   version="1.1"
   inkscape:version="0.91 r13725"
   sodipodi:docname="indicator-keyboard-Xs.svg">
  <metadata
     id="metadata13">
    <rdf:RDF>
      <cc:Work
         rdf:about="">
        <dc:format>image/svg+xml</dc:format>
        <dc:type
           rdf:resource="http://purl.org/dc/dcmitype/StillImage" />
      </cc:Work>
    </rdf:RDF>
  </metadata>
  <defs
     id="defs11" />
  <sodipodi:namedview
     pagecolor="#ffffff"
     bordercolor="#666666"
     borderopacity="1"
     objecttolerance="10"
     gridtolerance="10"
     guidetolerance="10"
     inkscape:pageopacity="0"
     inkscape:pageshadow="2"
     inkscape:window-width="640"
     inkscape:window-height="480"
     id="namedview9"
     showgrid="false"
     inkscape:zoom="14.75"
     inkscape:cx="8"
     inkscape:cy="8"
     inkscape:window-x="65"
     inkscape:window-y="24"
     inkscape:window-maximized="0"
     inkscape:current-layer="svg2" />
  <path
     style="fill:#353535;fill-opacity:1"
     d="M 1.5996094 0 C 0.71320937 2.9605947e-16 0 0.71320937 0 1.5996094 L 0 14.400391 C 2.9605947e-16 15.286791 0.71320937 16 1.5996094 16 L 14.400391 16 C 15.286791 16 16 15.286791 16 14.400391 L 16 1.5996094 C 16 0.71320937 15.286791 0 14.400391 0 L 1.5996094 0 z M 3.7402344 4.828125 L 4.4433594 4.828125 L 6.1269531 7.3378906 L 7.8085938 4.828125 L 8.4921875 4.828125 L 6.4863281 7.7519531 C 6.8763281 8.3039531 7.2569062 8.8599687 7.6289062 9.4179688 C 8.0009063 9.9699688 8.3255625 10.518453 8.6015625 11.064453 L 7.9355469 11.064453 C 7.8455469 10.884453 7.7279844 10.677359 7.5839844 10.443359 C 7.4459844 10.209359 7.293 9.9630782 7.125 9.7050781 C 6.963 9.4470781 6.7913281 9.1896406 6.6113281 8.9316406 C 6.4373281 8.6736406 6.2694219 8.431125 6.1074219 8.203125 C 5.9454219 8.431125 5.7757031 8.6736406 5.5957031 8.9316406 C 5.4217031 9.1896406 5.2500313 9.4470781 5.0820312 9.7050781 C 4.9200312 9.9630782 4.7670469 10.209359 4.6230469 10.443359 C 4.4850469 10.677359 4.37125 10.884453 4.28125 11.064453 L 3.6425781 11.064453 C 3.9185781 10.518453 4.2412812 9.9699688 4.6132812 9.4179688 C 4.9852813 8.8659687 5.3640469 8.3155313 5.7480469 7.7695312 L 3.7402344 4.828125 z M 10.900391 6.3027344 C 11.218391 6.3027344 11.479594 6.3307656 11.683594 6.3847656 C 11.893594 6.4387656 12.039047 6.4872969 12.123047 6.5292969 L 11.988281 7.0507812 C 11.916281 7.0147813 11.793141 6.96625 11.619141 6.90625 C 11.451141 6.84625 11.203047 6.8164062 10.873047 6.8164062 C 10.741047 6.8164062 10.614141 6.8313281 10.494141 6.8613281 C 10.380141 6.8853281 10.279453 6.9282812 10.189453 6.9882812 C 10.099453 7.0422812 10.026656 7.113125 9.9726562 7.203125 C 9.9186563 7.287125 9.8925781 7.3915781 9.8925781 7.5175781 C 9.8925781 7.6435781 9.9168438 7.7517969 9.9648438 7.8417969 C 10.012844 7.9317969 10.079922 8.0139375 10.169922 8.0859375 C 10.265922 8.1519375 10.381672 8.2153906 10.513672 8.2753906 C 10.651672 8.3353906 10.806469 8.4006562 10.980469 8.4726562 C 11.160469 8.5446562 11.332141 8.6192656 11.494141 8.6972656 C 11.662141 8.7692656 11.809547 8.8587969 11.935547 8.9667969 C 12.061547 9.0687969 12.162234 9.1957031 12.240234 9.3457031 C 12.318234 9.4897031 12.357422 9.6725313 12.357422 9.8945312 C 12.357422 10.314531 12.198859 10.631656 11.880859 10.847656 C 11.568859 11.063656 11.13975 11.171875 10.59375 11.171875 C 10.18575 11.171875 9.8742031 11.136453 9.6582031 11.064453 C 9.4422031 10.998453 9.2985625 10.948109 9.2265625 10.912109 L 9.3789062 10.380859 C 9.3969062 10.392859 9.4360938 10.413359 9.4960938 10.443359 C 9.5560938 10.467359 9.6362812 10.497203 9.7382812 10.533203 C 9.8402813 10.563203 9.9616094 10.591234 10.099609 10.615234 C 10.243609 10.639234 10.40775 10.650391 10.59375 10.650391 C 10.92975 10.650391 11.205875 10.596281 11.421875 10.488281 C 11.643875 10.374281 11.755859 10.185875 11.755859 9.921875 C 11.755859 9.795875 11.733406 9.6876563 11.691406 9.5976562 C 11.655406 9.5076562 11.591953 9.4274688 11.501953 9.3554688 C 11.411953 9.2834687 11.292578 9.2144375 11.142578 9.1484375 C 10.998578 9.0824375 10.819516 9.0040625 10.603516 8.9140625 C 10.429516 8.8420625 10.263422 8.7692656 10.107422 8.6972656 C 9.9514219 8.6192656 9.8133594 8.5315469 9.6933594 8.4355469 C 9.5733594 8.3335469 9.47825 8.2141719 9.40625 8.0761719 C 9.33425 7.9381719 9.2988281 7.7702656 9.2988281 7.5722656 C 9.2988281 7.1942656 9.4387031 6.8882969 9.7207031 6.6542969 C 10.008703 6.4202969 10.402391 6.3027344 10.900391 6.3027344 z "
     id="path4" />
</svg>

<svg xmlns="http://www.w3.org/2000/svg" viewBox="0 0 16 16">
 <path d="m 1.6 0 c -0.886 0 -1.6 0.713 -1.6 1.6 l 0 12.801 c 0 0.886 0.713 1.6 1.6 1.6 l 12.801 0 c 0.886 0 1.6 -0.713 1.6 -1.6 l 0 -12.801 c 0 -0.886 -0.713 -1.6 -1.6 -1.6 l -12.801 0 z m 2.141 4.828 l 0.703 0 l 1.684 2.51 l 1.682 -2.51 l 0.684 0 l -2.01 2.924 c 0.39 0.552 0.771 1.108 1.143 1.666 c 0.372 0.552 0.697 1.1 0.973 1.646 l -0.666 0 c -0.09 -0.18 -0.208 -0.387 -0.352 -0.621 c -0.138 -0.234 -0.291 -0.48 -0.459 -0.738 c -0.162 -0.258 -0.334 -0.515 -0.514 -0.773 c -0.174 -0.258 -0.342 -0.501 -0.504 -0.729 c -0.162 0.228 -0.332 0.471 -0.512 0.729 c -0.174 0.258 -0.346 0.515 -0.514 0.773 c -0.162 0.258 -0.315 0.504 -0.459 0.738 c -0.138 0.234 -0.252 0.441 -0.342 0.621 l -0.639 0 c 0.276 -0.546 0.599 -1.094 0.971 -1.646 c 0.372 -0.552 0.751 -1.102 1.135 -1.648 l -2.01 -2.941 z m 7.16 1.475 c 0.318 0 0.579 0.028 0.783 0.082 c 0.21 0.054 0.355 0.103 0.439 0.145 l -0.135 0.521 c -0.072 -0.036 -0.195 -0.085 -0.369 -0.145 c -0.168 -0.06 -0.416 -0.09 -0.746 -0.09 c -0.132 0 -0.259 0.015 -0.379 0.045 c -0.114 0.024 -0.215 0.067 -0.305 0.127 c -0.09 0.054 -0.163 0.125 -0.217 0.215 c -0.054 0.084 -0.08 0.188 -0.08 0.314 c 0 0.126 0.024 0.234 0.072 0.324 c 0.048 0.09 0.115 0.172 0.205 0.244 c 0.096 0.066 0.212 0.129 0.344 0.189 c 0.138 0.06 0.293 0.125 0.467 0.197 c 0.18 0.072 0.352 0.147 0.514 0.225 c 0.168 0.072 0.315 0.162 0.441 0.27 c 0.126 0.102 0.227 0.229 0.305 0.379 c 0.078 0.144 0.117 0.327 0.117 0.549 c 0 0.42 -0.159 0.737 -0.477 0.953 c -0.312 0.216 -0.741 0.324 -1.287 0.324 c -0.408 0 -0.72 -0.035 -0.936 -0.107 c -0.216 -0.066 -0.36 -0.116 -0.432 -0.152 l 0.152 -0.531 c 0.018 0.012 0.057 0.033 0.117 0.063 c 0.06 0.024 0.14 0.054 0.242 0.09 c 0.102 0.03 0.223 0.058 0.361 0.082 c 0.144 0.024 0.308 0.035 0.494 0.035 c 0.336 0 0.612 -0.054 0.828 -0.162 c 0.222 -0.114 0.334 -0.302 0.334 -0.566 c 0 -0.126 -0.022 -0.234 -0.064 -0.324 c -0.036 -0.09 -0.099 -0.17 -0.189 -0.242 c -0.09 -0.072 -0.209 -0.141 -0.359 -0.207 c -0.144 -0.066 -0.323 -0.144 -0.539 -0.234 c -0.174 -0.072 -0.34 -0.145 -0.496 -0.217 c -0.156 -0.078 -0.294 -0.166 -0.414 -0.262 c -0.12 -0.102 -0.215 -0.221 -0.287 -0.359 c -0.072 -0.138 -0.107 -0.306 -0.107 -0.504 c 0 -0.378 0.14 -0.684 0.422 -0.918 c 0.288 -0.234 0.682 -0.352 1.18 -0.352 z" style="fill:#353535;fill-opacity:1"/>
</svg>
